X: 103
T:Froxán
M:6/8
L:1/8
Q:200
C:Trad.
R:Muiñeira
K:C
G {A}GEG | c2 E {F}ECE | G2 C{D}CB,C | DEF GAB | "~"A2 G{A}GEG| c2 E {F}
ECE | G2 C {D}CB,C |
DEF DB,D| {B,}C2- :| |: C GAG | EDC/2"F"G/2 CB,C | A4 FA | GAG FEF | GEC
 GAG | EDC/2"F"G/2 CB,C| 
A4 FA | GAG FED |{B,}C2- :| |: C2 EC/2"F"G/2 | CEC/2"F"G/2 CEC |FDB,2 FD
/2"F"c/2 | DFD/2"F"c/2 DFD| GEC2 EC/2"F"G/2| CEC/2"F"G/2 CEC |FDB, DEF |
ECE DB,D |{B,}C2 :||

